X:906
T:AVANT DEUX DE PLEBOULLE 2
Z: Yves BELOTTEAU
M:4/4
L:1/4
Q:1/4=120
K:C
% Last note suggests minor mode tune
|AAee/2e/2 edc3/2 z/2 |dfeA ABcB|cdee/2e/2 edc3/2 z/2 |dfed cBA3/2 z/2 |
AAee/2e/2 edc3/2 z/2 |dfeA ABcB|cdee/2e/2 edc3/2 z/2 |dfed cBA3/2 z/2 |
AcBc deAA/2A/2|AcBc dBA3/2 z/2 |AcBc deAA/2A/2|AcBc dBA3/2 z/2 |
A|


